public/In.svg

<svg width="20" height="20" viewBox="0 0 20 20" fill="none" xmlns="http://www.w3.org/2000/svg">
<path d="M2.40383 0.0175781C1.07544 0.0175781 0.000214915 1.09473 0 2.42011C0 3.74679 1.07522 4.82373 2.40404 4.82373C3.72921 4.82373 4.80593 3.74679 4.80593 2.42011C4.80593 1.09452 3.72899 0.0175781 2.40383 0.0175781Z" fill="white"/>
<path d="M0.330566 6.64648H4.47563V19.9828H0.330566V6.64648Z" fill="white"/>
<path d="M15.0281 6.31445C13.0118 6.31445 11.6598 7.41998 11.1064 8.46833H11.0509V6.64607H7.07541H7.0752V19.9822H11.2166V13.3847C11.2166 11.6454 11.5478 9.9607 13.7043 9.9607C15.8298 9.9607 15.8581 11.95 15.8581 13.4963V19.982H20.0002V12.6671C20.0002 9.07654 19.2254 6.31445 15.0281 6.31445Z" fill="white"/>
</svg>

<svg xmlns="http://www.w3.org/2000/svg" width="20" height="20" fill="none"><path fill="#fff" d="M2.404.018a2.404 2.404 0 1 0 0 4.807 2.404 2.404 0 0 0 0-4.807M.33 6.646h4.146v13.337H.33zM15.028 6.314c-2.016 0-3.368 1.106-3.922 2.154h-.055V6.646H7.075v13.336h4.142v-6.597c0-1.74.33-3.424 2.487-3.424 2.126 0 2.154 1.989 2.154 3.535v6.486H20v-7.315c0-3.59-.775-6.353-4.972-6.353"/></svg>
